Adwaita++/actions/symbolic/appointment-new-symbolic.svg

<svg height="16" width="16" xmlns="http://www.w3.org/2000/svg">
  <g fill="#474747">
    <path d="m12 1v1.997h-2v1.996h2v1.997h2v-1.997h2v-1.996h-2v-1.997z"/>
    <path d="m6.492 5.992a.5.5 0 0 0 -.492.508v2.5h-1.5a.5.5 0 1 0 0 1h2a.5.5 0 0 0 .5-.5v-3a.5.5 0 0 0 -.508-.508z"/>
    <path d="m6.5 3c-3.578 0-6.5 2.922-6.5 6.5s2.922 6.5 6.5 6.5 6.5-2.922 6.5-6.5c0-.516-.073-1.018-.187-1.5h-2.094c.167.473.281.967.281 1.5 0 2.497-2.003 4.5-4.5 4.5a4.485 4.485 0 0 1 -4.5-4.5c0-2.497 2.003-4.5 4.5-4.5.932 0 1.79.27 2.5.75v-2.25a6.442 6.442 0 0 0 -2.5-.5z"/>
  </g>
</svg>

<svg xmlns="http://www.w3.org/2000/svg" width="16" height="16">
    <g fill="#474747">
        <path d="M12 1v1.997h-2v1.996h2V6.99h2V4.993h2V2.997h-2V1z"/>
        <path d="M6.492 5.992A.5.5 0 0 0 6 6.5V9H4.5a.5.5 0 1 0 0 1h2a.5.5 0 0 0 .5-.5v-3a.5.5 0 0 0-.508-.508z" style="line-height:normal;font-variant-ligatures:normal;font-variant-position:normal;font-variant-caps:normal;font-variant-numeric:normal;font-variant-alternates:normal;font-feature-settings:normal;text-indent:0;text-align:start;text-decoration-line:none;text-decoration-style:solid;text-decoration-color:#000;text-transform:none;text-orientation:mixed;shape-padding:0;isolation:auto;mix-blend-mode:normal" color="#000" font-weight="400" font-family="sans-serif" white-space="normal" overflow="visible"/>
        <path d="M6.5 3C2.922 3 0 5.922 0 9.5S2.922 16 6.5 16 13 13.078 13 9.5c0-.516-.073-1.018-.187-1.5h-2.094c.167.473.281.967.281 1.5 0 2.497-2.003 4.5-4.5 4.5A4.485 4.485 0 0 1 2 9.5C2 7.003 4.003 5 6.5 5c.932 0 1.79.27 2.5.75V3.5A6.442 6.442 0 0 0 6.5 3z" style="line-height:normal;-inkscape-font-specification:Sans;text-indent:0;text-align:start;text-decoration-line:none;text-transform:none;marker:none" color="#000" font-weight="400" font-size="xx-small" font-family="Sans" overflow="visible"/>
    </g>
</svg>
